X:1
T:G minor Samuel Holyoke, 1803
T:Isaac Watts, 1717 (Psalm 69, Part 2)           86. 86. (C. M.)
T:Piedmont Transcribed from The Columbian Repository, 1803.
%%score [ 1 2 3 4 ]
L:1/8
Q:1/4=170
M:2/2
K:Bb
V:1 treble nm="Tr." snm="Tr."
V:2 treble nm="C." snm="C."
V:3 treble-8 nm="T." snm="T."
V:4 bass nm="B." snm="B."
V:1
"^1.  Now let our lips with ho – ly fear  And mournful pleasure sing  The suff'rings of our great high priest, The  sorrows    of     our   King." B4 B2 G2 | %1
 ^F4 d4 | c4 [Bc]4 | [Ac]6 A2 | B4 B4 | B4 G4 | A8 | B4 B2 B2 | A4 A4 | B4 =B4 | c6 c2 | B4 c4 | %12
 B4 A4 | A8 || %14
"^1.  He sinks in floods of deep distress;  How high   the   wa  –  ters        rise!  While to his heav'nly Father's ear  He sends per–pe–tual cries," ^F4 F2 F2 | %15
 G6 A2 | B4 c4 | d6 ^F2 | (G3 A) B4 | A4 (A3 G) | ^F8 | z8 | z8 | z8 | z8 | z8 | z8 | z8 | %28
"^1.  While to his  heav'nly   Fa  –  ther's     ear      He      sends   per  –   pe – tual    cries." G4 G2 ^F2 | %29
 G4 D4 | G4 (A2 G2) | F6 A2 | (B2 A2) (B2 A2) | G4 T^F4 | G8 |] %35
V:2
"^3. \"They tread my honor to the  dust,  And laugh when I complain;  Their sharp in–sul–ting slan–ders add  Fresh anguish  to     my   pain.""^2. \"Hear me, O Lord, and save thy Son,  Nor  hide  thy shining face;  Why should thy fav'rite look like  one   For–sa  – ken   of     thy  grace?" G4 D2 D2 | %1
 D4 F4 | F4 =E4 | F6 C2 | D4 F4 | G4 G4 | ^F8 | D4 F2 C2 | C4 D4 | (D3 G) G4 | G6 F2 | (F3 E) D4 | %12
 D4 ^C4 | D8 || %14
"^2. With rage they persecute the man  That groans  be – neath  thy  wound,  While for a  sac–ri–fice I pour   My   life    up  – on  the  ground,""^3.  All my reproach is known to thee, The  scan –  dal    and    the  shame; Reproach has broke my bleeding heart,  And lies defiled my name," D4 D2 D2 | %15
 D6 F2 | F4 (F2 E2) | D6 D2 | D4 D4 | D4 ^C4 | D8 | B,4 B,2 C2 | D4 D4 | E4 E4 | D6 E2 | %25
 (D2 C2) (D2 C2) | B,4 B,4 | A,8 | %28
"^2. While for a     sac – ri – fice      I           pour    My     life        up   –   on     the   ground.""^3.  Reproach has broke my  bleeding     heart,   And   lies        de    –  filed  my    name." D4 D2 D2 | %29
 D4 F4 | E4 =E4 | F6 F2 | F4 (F2 E2) | D4 D4 | D8 |] %35
V:3
"^4.  \"I looked for pity,  but   in   vain;  My kindred are       my     grief:  I ask my  friends for comfort round,  But  meet  with  no  re   –  lief." d4 d2 B2 | %1
 A4 B4 | A4 G4 | F6 F2 | B4 d4 | (e3 d) ^c4 | d8 | d4 d2 =e2 | f4 ^f4 | g4 d4 | e6 e2 | (d3 e) f4 | %12
 f4 =e4 | d8 || %14
"^4.  With vinegar they mock my thirst, They give   me   gall    for     food;  And sporting with my dying groans,  They triumph in my blood," A4 A2 A2 | %15
 B6 c2 | d4 A4 | B6 A2 | (B3 A) G4 | F4 =E4 | D8 | G4 G2 A2 | B4 B4 | c4 c4 | B6 c2 | %25
 (B2 A2) (B2 A2) | G4 G4 | ^F8 | %28
"^4.  And sporting with my dy   –   ing    groans,  They   tri  –  umph    in     my    blood." G4 G2 A2 | %29
 B4 B4 | (B2 c2) (c2 B2) | A6 c2 | (d2 e2) (d2 c2) | B4 A4 | G8 |] %35
V:4
"^5. \"Shine into my dis–tres–sed soul,  Let   thy  compassions  save;  And though my flesh sink down to death, Redeem  it  from  the  grave." G,4 G,2 G,2 | %1
 D,4 B,,4 | C,4 C,4 | F,6 E,2 | D,4 B,,4 | E,4 E,4 | D,8 | B,4 B,2 C2 | F,4 D,4 | G,4 G,4 | %10
 C6 B,2 | B,4 A,4 | G,4 A,4 | D,8 || %14
"^5.  I shall arise to praise thy name,  Shall  reign  in  worlds  un   –  known;   And  thy sal –va–tion, O my God,  Shall seat me on thy throne." D,4 D,2 D,2 | %15
 G,6 E,2 | D,4 F,4 | B,,6 D,2 | G,,4 G,,4 | A,,4 A,,4 | D,8 | z8 | z8 | z8 | z8 | z8 | z8 | z8 | %28
"^5.  And thy sal–va–tion,  O          my      God,     Shall   seat       me       on    thy    throne.\"" G,,4 B,,2 D,2 | %29
 G,4 B,,4 | E,4 C,4 | F,6 F,E, | (D,2 C,2) (B,,2 C,2) | D,4 D,4 | G,,8 |] %35

